packages/kaspersky-hexa-ui-icons/src/iconsSVGs/16/Widget.svg

<svg width="16" height="16" viewBox="0 0 16 16" fill="none" xmlns="http://www.w3.org/2000/svg">
<path d="M11.7501 1.3501C12.1091 1.3501 12.4001 1.64111 12.4001 2.0001V3.6001H14.0001C14.3591 3.6001 14.6501 3.89111 14.6501 4.2501C14.6501 4.60908 14.3591 4.9001 14.0001 4.9001L12.4001 4.9001V6.5001C12.4001 6.85908 12.1091 7.1501 11.7501 7.1501C11.3911 7.1501 11.1001 6.85908 11.1001 6.5001V4.9001L9.5001 4.9001C9.14111 4.9001 8.8501 4.60908 8.8501 4.2501C8.8501 3.89111 9.14111 3.6001 9.5001 3.6001H11.1001V2.0001C11.1001 1.64111 11.3911 1.3501 11.7501 1.3501Z" fill="black"/>
<path fill-rule="evenodd" clip-rule="evenodd" d="M7.1501 3.0001C7.1501 2.08883 6.41137 1.3501 5.5001 1.3501L3.0001 1.3501C2.08883 1.3501 1.3501 2.08883 1.3501 3.0001V13.0001C1.3501 13.9114 2.08883 14.6501 3.0001 14.6501H5.5001C6.41137 14.6501 7.1501 13.9114 7.1501 13.0001L7.1501 3.0001ZM5.5001 2.6501C5.6934 2.6501 5.8501 2.8068 5.8501 3.0001L5.8501 13.0001C5.8501 13.1934 5.6934 13.3501 5.5001 13.3501H3.0001C2.8068 13.3501 2.6501 13.1934 2.6501 13.0001L2.6501 3.0001C2.6501 2.8068 2.8068 2.6501 3.0001 2.6501L5.5001 2.6501Z" fill="black"/>
<path fill-rule="evenodd" clip-rule="evenodd" d="M14.6501 10.5001C14.6501 9.58882 13.9114 8.85009 13.0001 8.85009H10.5001C9.58881 8.85009 8.85008 9.58882 8.85008 10.5001V13.0001C8.85008 13.9114 9.58881 14.6501 10.5001 14.6501H13.0001C13.9114 14.6501 14.6501 13.9114 14.6501 13.0001V10.5001ZM13.0001 10.1501C13.1934 10.1501 13.3501 10.3068 13.3501 10.5001L13.3501 13.0001C13.3501 13.1934 13.1934 13.3501 13.0001 13.3501H10.5001C10.3068 13.3501 10.1501 13.1934 10.1501 13.0001V10.5001C10.1501 10.3068 10.3068 10.1501 10.5001 10.1501H13.0001Z" fill="black"/>
</svg>

<svg xmlns="http://www.w3.org/2000/svg" width="16" height="16" fill="none" viewBox="0 0 16 16"><path fill="#000" fill-rule="evenodd" d="M7.15 3.0001c0-.9113-.7388-1.65-1.65-1.65H3c-.9113 0-1.65.7387-1.65 1.65v10c0 .9113.7387 1.65 1.65 1.65h2.5c.9112 0 1.65-.7387 1.65-1.65zm4.6-1.65a.65.65 0 0 1 .65.65v1.6H14a.65.65 0 1 1 0 1.3h-1.6v1.6a.65.65 0 0 1-1.3 0v-1.6H9.5a.65.65 0 0 1 0-1.3h1.6v-1.6a.65.65 0 0 1 .65-.65m-6.25 1.3a.35.35 0 0 1 .35.35v10a.35.35 0 0 1-.35.35H3a.35.35 0 0 1-.35-.35v-10a.35.35 0 0 1 .35-.35zm7.5 6.2c.9112 0 1.65.7387 1.65 1.65v2.5c0 .9113-.7388 1.65-1.65 1.65h-2.5c-.9113 0-1.65-.7387-1.65-1.65v-2.5c0-.9113.7387-1.65 1.65-1.65zm.35 1.65a.35.35 0 0 0-.35-.35h-2.5a.35.35 0 0 0-.35.35v2.5a.35.35 0 0 0 .35.35H13a.35.35 0 0 0 .35-.35z"/></svg>
